img/icons/File_PDF 2.svg

<svg width="24" height="24" viewBox="0 0 24 24" fill="none" xmlns="http://www.w3.org/2000/svg">
<path d="M20.9046 16.631L21.0166 16.824C21.1716 17.1522 21.247 17.5052 21.247 17.8599C21.247 18.0134 21.2309 18.1677 21.1984 18.3234C21.1376 18.5914 21.0448 18.8486 20.9076 19.0836C20.7856 19.2836 20.6501 19.4596 20.5034 19.6064L20.495 19.6148L20.487 19.6236C20.4191 19.6982 20.3394 19.7655 20.2309 19.847C19.8133 20.1464 19.3063 20.3199 18.767 20.3199C17.875 20.3199 17.08 19.8646 16.6296 19.0893C16.6295 19.0892 16.6294 19.089 16.6293 19.0889L15.32 16.82L15.1757 16.5699H14.887H9.10695H8.81821L8.67389 16.82L7.36456 19.0889C7.36446 19.089 7.36437 19.0892 7.36428 19.0893C6.91389 19.8646 6.11894 20.3199 5.22695 20.3199C4.33478 20.3199 3.53969 19.8644 3.08935 19.0889L3.08816 19.0868C2.64038 18.3239 2.639 17.4066 3.08935 16.631C3.53969 15.8554 4.33478 15.3999 5.22695 15.3999H7.84696H8.13576L8.28006 15.1498L11.1701 10.1398L11.3142 9.88988L11.17 9.64002L9.86001 7.37002L9.86003 7.37001L9.85816 7.36683C9.41038 6.60394 9.409 5.6866 9.85935 4.911C10.3097 4.13542 11.1048 3.67993 11.997 3.67993C12.8891 3.67993 13.6842 4.13542 14.1346 4.911L14.1357 4.91303C14.5835 5.67593 14.5849 6.59326 14.1346 7.36886L14.1339 7.37002L12.8239 9.64002L12.6797 9.88988L12.8238 10.1398L15.7138 15.1498L15.8581 15.3999H16.147H18.767C19.6591 15.3999 20.4542 15.8554 20.9046 16.631ZM7.03017 17.3296L7.46217 16.5799H6.59696H5.23695C4.56542 16.5799 4.23245 17.0339 4.12507 17.218C4.01267 17.4107 3.79562 17.9354 4.12283 18.508C4.45494 19.0892 5.02573 19.1499 5.23695 19.1499C5.4481 19.1499 6.0185 19.0892 6.35067 18.5087C6.35081 18.5085 6.35094 18.5082 6.35108 18.508L7.03017 17.3296ZM13.1202 6.78958L13.1202 6.78961L13.124 6.78275C13.4458 6.20351 13.2325 5.6929 13.1188 5.498C13.0115 5.31391 12.6785 4.85993 12.007 4.85993C11.3354 4.85993 11.0024 5.31391 10.8951 5.498C10.7827 5.69067 10.5656 6.21539 10.8928 6.788L10.8937 6.78958L11.5737 7.96958L12.007 8.72134L12.4402 7.96958L13.1202 6.78958ZM9.94368 14.6504L9.51196 15.3999H10.377H12.007H13.637H14.5019L14.0702 14.6504L12.4402 11.8204L12.007 11.0681L11.5737 11.8204L9.94368 14.6504ZM19.8911 18.508L19.8911 18.508L19.894 18.5028C20.2158 17.9235 20.0025 17.4129 19.8888 17.218C19.7815 17.0339 19.4485 16.5799 18.777 16.5799H17.417H16.5517L16.9837 17.3296L17.6628 18.508C17.663 18.5083 17.6632 18.5086 17.6633 18.5088C17.9955 19.0893 18.5658 19.1499 18.777 19.1499C18.9882 19.1499 19.559 19.0892 19.8911 18.508Z" fill="#F56311" stroke="#F56311"/>
</svg>

<svg width="24" height="24" fill="none" xmlns="http://www.w3.org/2000/svg"><path d="m20.905 16.631.112.193c.155.328.23.681.23 1.036 0 .153-.016.308-.049.463a2.64 2.64 0 0 1-.29.76c-.122.2-.258.377-.405.523l-.008.009-.008.009a1.785 1.785 0 0 1-.256.223c-.418.3-.925.473-1.464.473a2.44 2.44 0 0 1-2.137-1.23v-.001l-1.31-2.269-.144-.25H8.818l-.144.25-1.31 2.269a2.44 2.44 0 0 1-2.137 1.23 2.44 2.44 0 0 1-2.138-1.23v-.002a2.407 2.407 0 0 1 0-2.456A2.44 2.44 0 0 1 5.227 15.4h2.909l.144-.25 2.89-5.01.144-.25-.144-.25-1.31-2.27-.002-.003A2.407 2.407 0 0 1 9.86 4.91a2.44 2.44 0 0 1 2.138-1.231 2.44 2.44 0 0 1 2.138 1.231v.002c.449.763.45 1.68 0 2.456l-.001.001-1.31 2.27-.144.25.144.25 2.89 5.01.144.25h2.908a2.44 2.44 0 0 1 2.138 1.231ZM7.03 17.33l.432-.75H5.237c-.672 0-1.005.454-1.112.638a1.29 1.29 0 0 0-.002 1.29 1.27 1.27 0 0 0 1.114.642c.211 0 .782-.06 1.114-.641v-.001l.68-1.178Zm6.09-10.54.004-.007c.322-.58.108-1.09-.005-1.285a1.268 1.268 0 0 0-1.112-.638c-.672 0-1.005.454-1.112.638a1.29 1.29 0 0 0-.002 1.29v.002l.68 1.18.434.751.433-.751.68-1.18Zm-3.176 7.86-.432.75h4.99l-.432-.75-1.63-2.83-.433-.752-.433.752-1.63 2.83Zm9.947 3.858.003-.005c.322-.58.109-1.09-.005-1.285a1.268 1.268 0 0 0-1.112-.638h-2.225l.432.75.679 1.178a1.27 1.27 0 0 0 1.114.642c.211 0 .782-.06 1.114-.642Z" fill="#F56311" stroke="#F56311"/></svg>
